svgs/sharp-solid/rectangle-barcode.svg

<svg xmlns="http://www.w3.org/2000/svg" viewBox="0 0 576 512"><!--! Font Awesome Pro 6.6.0 by @fontawesome - https://fontawesome.com License - https://fontawesome.com/license (Commercial License) Copyright 2024 Fonticons, Inc. --><path d="M576 32L0 32 0 480l576 0 0-448zM144 128l0 256-48 0 0-256 48 0zm32 0l32 0 0 256-32 0 0-256zm112 0l0 256-48 0 0-256 48 0zm64 0l48 0 0 256-48 0 0-256zm128 0l0 256-32 0 0-256 32 0z"/></svg>

<svg xmlns="http://www.w3.org/2000/svg" viewBox="0 0 576 512"><!--! Font Awesome Pro 6.4.2 by @fontawesome - https://fontawesome.com License - https://fontawesome.com/license (Commercial License) Copyright 2023 Fonticons, Inc. --><path d="M576 32H0V480H576V32zM144 128V384H96V128h48zm32 0h32V384H176V128zm112 0V384H240V128h48zm64 0h48V384H352V128zm128 0V384H448V128h32z"/></svg>
